X:143
T: DORT OBEN AUF DEM BERGE
N: E0071H
O: Europa, Mitteleuropa, Deutschland, Boehmen
R: erzaehlendes Volks - Lied, Sage, Liebe
M: 2/4
L: 1/16
K: F
C2 | F2G2A2B2 | c4A2
f2 | e2d2cBAB | A4z2
c2 | f2A2c2G2 | B2B2A2
F2 | G2G2G2B2 | A2A2A2
cf | c2A2B2AG | F4z2

@@@ Tune index: 3793
